X: 41335
T: Turkey In The Straw
R: reel
M: 4/4
K: Amajor
A3E CEA,E|FE E/E/E E2 AB|c3 d cBAB|cB B/B/B BdcB|
A3E CEA,E|FE E/E/E E2 AB|cedf ecAB|cA A/A/A A2||
d|ce e/e/e efed|cAcd efec|df f/f/f fgfe|dcde fgae|
Aeag fedc|dcBA cBAB|ceaf ecAB|cA A/A/A A2||

